apps/dav/img/calendar.svg

<svg width="16" height="16" version="1.1" viewbox="0 0 16 16" xmlns="http://www.w3.org/2000/svg"><path d="m4 1c-0.5 0-1 0.5-1 1v2c0 0.5 0.5 1 1 1s1-0.5 1-1v-2c0-0.5-0.5-1-1-1zm8 0c-0.5 0-1 0.5-1 1v2c0 0.5 0.5 1 1 1s1-0.5 1-1v-2c0-0.5-0.5-1-1-1zm-6.5 2v1c0 0.831-0.5 1.5-1.5 1.5s-1.5-0.5-1.5-1.5v-0.9375c-0.8841 0.227-1.5 1.0247-1.5 1.9375v8c0 1.108 0.892 2 2 2h10c1.108 0 2-0.892 2-2v-8c0-0.9128-0.61588-1.7105-1.5-1.9375v0.9375c0 0.831-0.5 1.5-1.5 1.5s-1.5-0.5-1.5-1.5v-1zm7.5 5v5h-10v-5z"/></svg>

<svg xmlns="http://www.w3.org/2000/svg" width="16" height="16"><path d="M4 1c-.5 0-1 .5-1 1v2c0 .5.5 1 1 1s1-.5 1-1V2c0-.5-.5-1-1-1zm8 0c-.5 0-1 .5-1 1v2c0 .5.5 1 1 1s1-.5 1-1V2c0-.5-.5-1-1-1zM5.5 3v1c0 .831-.5 1.5-1.5 1.5S2.5 5 2.5 4v-.938A1.998 1.998 0 0 0 1 5v8c0 1.108.892 2 2 2h10c1.108 0 2-.892 2-2V5c0-.913-.616-1.71-1.5-1.938V4c0 .831-.5 1.5-1.5 1.5S10.5 5 10.5 4V3zM13 8v5H3V8z"/></svg>
